assets/images/match.svg

<?xml version="1.0" encoding="UTF-8"?>
<svg width="34" height="40" viewBox="0 0 34 40" fill="none" xmlns="http://www.w3.org/2000/svg">
<path d="M24.4102 16.52C26.0317 15.4056 28.1537 15.4143 29.6782 16.5416C30.4446 17.1083 30.9945 17.9125 31.2453 18.8334C31.7444 20.6656 30.9874 22.653 29.3659 23.7674L29.0063 24.0146C28.5478 24.3297 28.0436 24.5717 27.5133 24.7312L26.6259 24.998C24.8912 25.5197 23.0557 24.8984 22.0692 23.4557C21.0827 22.013 21.1665 20.0726 22.2774 18.6385L22.8456 17.9049C23.1852 17.4665 23.5921 17.0823 24.0506 16.7672L24.4102 16.52Z" fill="#FF2696"/>
<path d="M19.5098 23.8924C19.2078 23.2291 19.0567 22.8974 18.8543 22.8104C18.6518 22.7234 18.4244 22.8618 17.9696 23.1385L1.88053 33.8842C-0.0595459 35.065 -0.697365 35.6545 0.91915 38.1983C2.53566 40.7421 3.2963 40.2399 5.09433 38.8514L21.278 27.9768C21.6995 27.6513 21.9103 27.4886 21.9023 27.2679C21.8944 27.0471 21.6403 26.7863 21.132 26.2647C20.8019 25.9258 20.4955 25.5528 20.219 25.1484C19.9425 24.7442 19.706 24.3232 19.5098 23.8924Z" fill="#FF2696"/>
<path d="M33.5118 16.1279C33.4135 16.4009 33.0816 16.4089 32.9627 16.1431C32.5498 15.2204 31.9053 14.4227 31.0787 13.823C28.889 12.2346 25.7939 12.2874 23.395 13.9541L22.8629 14.3238C22.1845 14.7951 21.5793 15.365 21.0707 16.0115L20.2196 17.0933C20.1119 17.2301 20.0105 17.3699 19.9153 17.5123C19.4835 18.1576 19.2677 18.4803 19.0143 18.4452C18.761 18.4101 18.6574 18.1071 18.4501 17.5011C18.247 16.9074 18.118 16.2633 18.063 15.5688C17.9775 14.4878 18.0574 13.5508 18.3028 12.7578C18.563 11.9471 18.878 11.2147 19.2479 10.5605C19.6165 9.88993 19.9554 9.25456 20.2647 8.6544C20.5726 8.03785 20.7471 7.37377 20.7881 6.66215C20.7952 6.54627 20.8303 6.4777 20.8935 6.45643C20.9715 6.41755 21.0534 6.42781 21.1391 6.48721C21.7435 6.95213 22.2557 7.48172 22.6756 8.07597C22.9671 8.46255 23.2423 8.87258 23.501 9.30607C23.6769 9.60066 23.7648 9.74795 23.8956 9.73983C24.0265 9.73171 24.0892 9.58663 24.2148 9.29647C24.5903 8.42868 24.832 7.31372 24.94 5.95159C25.0767 4.19466 24.9606 2.31686 24.5916 0.318187C24.5697 0.219358 24.5803 0.143075 24.6234 0.0893381C24.632 0.0787477 24.6362 0.0734524 24.6428 0.0666227C24.6493 0.059793 24.655 0.0548434 24.6663 0.0449439C24.7246 -0.00609996 24.8054 -0.0136651 24.9087 0.0222488C26.7493 0.739369 28.3204 1.74057 29.6221 3.02585C30.9237 4.31112 31.9369 5.74188 32.6617 7.3181C33.4025 8.8931 33.8364 10.4831 33.9634 12.0883C34.0917 13.7097 33.869 14.4494 33.5118 16.1279Z" fill="#FF2696"/>
</svg>

<svg xmlns="http://www.w3.org/2000/svg" width="34" height="40" fill="none" viewBox="0 0 34 40"><path fill="#ff2696" d="M24.41 16.52c1.622-1.114 3.744-1.106 5.268.022a4.22 4.22 0 0 1 1.567 2.291c.5 1.833-.258 3.82-1.88 4.934l-.359.248a5.4 5.4 0 0 1-1.493.716l-.887.267c-1.735.522-3.57-.1-4.557-1.542-.986-1.443-.902-3.383.208-4.817l.569-.734a5.4 5.4 0 0 1 1.205-1.138zm-4.9 7.372c-.302-.663-.453-.995-.656-1.082-.202-.087-.43.052-.884.329L1.88 33.884c-1.94 1.181-2.577 1.77-.96 4.314s2.376 2.042 4.174.653l16.184-10.874c.422-.326.632-.488.624-.71-.008-.22-.262-.48-.77-1.002a8.4 8.4 0 0 1-1.622-2.373"/><path fill="#ff2696" d="M33.512 16.128c-.099.273-.43.28-.55.015a5.8 5.8 0 0 0-1.883-2.32c-2.19-1.588-5.285-1.536-7.684.131l-.532.37a8.3 8.3 0 0 0-1.792 1.688l-.851 1.081a7 7 0 0 0-.305.42c-.431.645-.647.967-.9.932-.254-.035-.358-.338-.565-.944a8 8 0 0 1-.387-1.932q-.128-1.621.24-2.811.39-1.215.945-2.197.552-1.006 1.017-1.907.462-.924.523-1.992.01-.173.105-.206.117-.057.246.031a7.4 7.4 0 0 1 1.537 1.589q.436.58.825 1.23c.176.295.264.442.395.434.13-.008.193-.153.319-.444q.563-1.3.725-3.344.205-2.635-.348-5.634-.033-.148.031-.229.011-.014.02-.022l.023-.022q.089-.077.243-.023 2.76 1.076 4.713 3.004t3.04 4.292q1.11 2.363 1.301 4.77c.129 1.622-.094 2.361-.451 4.04"/></svg>
